packages/ffe-icons/icons/open/300/sm/directions_subway.svg

<svg xmlns="http://www.w3.org/2000/svg" height="20" viewBox="0 -960 960 960" width="20"><path d="M321.693-190.001q-47.615-9-78.653-45.539-31.039-36.538-31.039-84.153V-672q0-63.384 61.231-93.691 61.23-30.308 206.768-30.308 143.23 0 205.614 30.885Q747.999-734.23 747.999-672v352.307q0 47.615-31.039 84.153-31.038 36.539-78.653 45.539l32.282 36.076q6.794 7.231 2.987 17.192-3.808 9.962-14.27 9.962H300.694q-10.462 0-14.27-9.962-3.807-9.961 2.987-17.192l32.282-36.076ZM264-483.999h190.001v-149.232H264v149.232ZM634.307-432H264h432-61.693Zm-128.308-51.999H696v-149.232H505.999v149.232ZM360-295.693q16.923 0 28.615-11.692T400.307-336q0-16.923-11.692-28.615T360-376.307q-16.923 0-28.615 11.692T319.693-336q0 16.923 11.692 28.615T360-295.693Zm240 0q16.923 0 28.615-11.692T640.307-336q0-16.923-11.692-28.615T600-376.307q-16.923 0-28.615 11.692T559.693-336q0 16.923 11.692 28.615T600-295.693ZM343.693-240h272.614Q649-240 672.5-263.5t23.5-56.193V-432H264v112.307Q264-287 287.5-263.5t56.193 23.5ZM480-744q-113.924 0-155.116 13-41.193 13-62.808 45.77h435.309Q671.847-721 627.654-732.5 583.462-744 480-744Zm.448 58.77H697.385 262.076h218.372Z"/></svg>

<svg xmlns="http://www.w3.org/2000/svg" height="20" viewBox="0 -960 960 960" width="20"><path d="M321.69-190q-47.61-9-78.65-45.54Q212-272.08 212-319.69V-672q0-63.38 61.23-93.69Q334.46-796 480-796q143.23 0 205.61 30.89Q748-734.23 748-672v352.31q0 47.61-31.04 84.15Q685.92-199 638.31-190l32.28 36.07q6.79 7.24 2.99 17.2-3.81 9.96-14.27 9.96H300.69q-10.46 0-14.27-9.96-3.8-9.96 2.99-17.2L321.69-190ZM264-484h190v-149.23H264V-484Zm370.31 52H264h432-61.69ZM506-484h190v-149.23H506V-484ZM360-295.69q16.92 0 28.61-11.7 11.7-11.69 11.7-28.61t-11.7-28.61q-11.69-11.7-28.61-11.7t-28.61 11.7q-11.7 11.69-11.7 28.61t11.7 28.61q11.69 11.7 28.61 11.7Zm240 0q16.92 0 28.61-11.7 11.7-11.69 11.7-28.61t-11.7-28.61q-11.69-11.7-28.61-11.7t-28.61 11.7q-11.7 11.69-11.7 28.61t11.7 28.61q11.69 11.7 28.61 11.7ZM343.69-240h272.62q32.69 0 56.19-23.5t23.5-56.19V-432H264v112.31q0 32.69 23.5 56.19t56.19 23.5ZM480-744q-113.92 0-155.12 13-41.19 13-62.8 45.77h435.31Q671.85-721 627.65-732.5 583.46-744 480-744Zm.45 58.77h216.94-435.31 218.37Z"/></svg>
